X:8978
T:La Maristingo
R:Gigue
A:Aquitaine
O:France
M:2/4
L:1/8
Q:1/4=120
K:C
Gc|cc/2c/2 GE|G2 Ge|ed de|dc Gc|cc/2c/2 GE|G2 Ge|ed cB|c2:|


